X: 1
T: Kansas Waltz
%D:1861
R: waltz
Z: 2020 John Chambers <jc:trillian.mit.edu>
S: https://www.facebook.com/groups/Fiddletuneoftheday/ 2020-08-22
S: https://www.facebook.com/groups/Fiddletuneoftheday/photos/
M: 3/4
L: 1/8
K: D
FE | "D"D2 F2 A2 | "G"d3 c B2 | "D"B2 A2 A2 | A4 F2 | "A"A3 F G2 | "G"A B2 A G2 | G2 F2 F2 | "D"F4 ||
FE | "D"D2 F2 A3 | A d3 f2 | "A"e/f/e d2 c2 | "Bm"c d2 c B2 | "A"A3 B A2 | A2 B2 c2 | "G"e/f/e d2 d2 | "D"d4 :|
F2 | "A"F2 E2 E2 | E2 F2 G2 | "G"B2 A2 A2 | "D"A4 F2 | "A"A3 F G2 | "G"B3 A G2 | G2 F2 F2 | "D"F4 ||
FE | "D"D2 F2 A3 | A d3 f2 | "A"e/f/e d2 c2 | "Bm"c d2 c B2 | "A"A3 A A2 | A2 B2 c2 | "G"e/f/e d2 d2 | "D"d4 |]
